icon/fa/face-flushed.svg

<svg xmlns="http://www.w3.org/2000/svg" viewBox="0 0 512 512"><!--! Font Awesome Free 6.1.2 by @fontawesome - https://fontawesome.com License - https://fontawesome.com/license/free (Icons: CC BY 4.0, Fonts: SIL OFL 1.1, Code: MIT License) Copyright 2022 Fonticons, Inc.--><path d="M184 224c0 13.3-10.7 24-24 24s-24-10.7-24-24 10.7-24 24-24 24 10.7 24 24zm192 0c0 13.3-10.7 24-24 24s-24-10.7-24-24 10.7-24 24-24 24 10.7 24 24zm136 32c0 141.4-114.6 256-256 256S0 397.4 0 256 114.6 0 256 0s256 114.6 256 256zM192 400h128c8.8 0 16-7.2 16-16s-7.2-16-16-16H192c-8.8 0-16 7.2-16 16s7.2 16 16 16zm-32-104c39.8 0 72-32.2 72-72s-32.2-72-72-72-72 32.2-72 72 32.2 72 72 72zm192-144c-39.8 0-72 32.2-72 72s32.2 72 72 72 72-32.2 72-72-32.2-72-72-72z"/></svg>

<svg xmlns="http://www.w3.org/2000/svg" viewBox="0 0 512 512" height="1em" width="1em">
<!--! Font Awesome Free 6.1.2 by @fontawesome - https://fontawesome.com License - https://fontawesome.com/license/free (Icons: CC BY 4.0, Fonts: SIL OFL 1.1, Code: MIT License) Copyright 2022 Fonticons, Inc.-->
  <path d="M184 224C184 237.3 173.3 248 160 248C146.7 248 136 237.3 136 224C136 210.7 146.7 200 160 200C173.3 200 184 210.7 184 224zM376 224C376 237.3 365.3 248 352 248C338.7 248 328 237.3 328 224C328 210.7 338.7 200 352 200C365.3 200 376 210.7 376 224zM512 256C512 397.4 397.4 512 256 512C114.6 512 0 397.4 0 256C0 114.6 114.6 0 256 0C397.4 0 512 114.6 512 256zM192 400H320C328.8 400 336 392.8 336 384C336 375.2 328.8 368 320 368H192C183.2 368 176 375.2 176 384C176 392.8 183.2 400 192 400zM160 296C199.8 296 232 263.8 232 224C232 184.2 199.8 152 160 152C120.2 152 88 184.2 88 224C88 263.8 120.2 296 160 296zM352 152C312.2 152 280 184.2 280 224C280 263.8 312.2 296 352 296C391.8 296 424 263.8 424 224C424 184.2 391.8 152 352 152z"/>
</svg>
